app/images/markers/numbered/7.svg

<svg height="46" viewBox="0 0 40 46" width="40" xmlns="http://www.w3.org/2000/svg"><g fill="none" fill-rule="evenodd"><path d="m20 46.037c1.732 0 3.412-6.257 5.015-6.67 8.618-2.227 14.985-10.054 14.985-19.367 0-11.046-8.954-20-20-20s-20 8.954-20 20c0 9.318 6.372 17.147 14.996 19.37 1.6.41 3.276 6.667 5.004 6.667z" fill="#000" fill-rule="nonzero"/><path d="m20 46.037c1.732 0 3.412-6.257 5.015-6.67 8.618-2.227 14.985-10.054 14.985-19.367 0-11.046-8.954-20-20-20s-20 8.954-20 20c0 9.318 6.372 17.147 14.996 19.37 1.6.41 3.276 6.667 5.004 6.667z" fill="#00a862"/><g transform="translate(11 8)"><path d="m17.688 2.35c-.108-.46-.587-1.65-1.5-1.65h-14.378c-.912 0-1.39 1.19-1.503 1.682l-.295 1.634c-.033.188.018.38.14.527.122.146.302.23.493.23h.824l1.158 16.44c.06.962.863 1.715 1.83 1.715h9.09c.967 0 1.77-.753 1.83-1.71l1.156-16.445h.826c.192 0 .372-.084.494-.23s.173-.34.14-.527l-.302-1.666z" fill="#fff" fill-rule="nonzero"/><path d="m6.49588868 17c.08886763-.7067093.26342643-1.3266575.52368164-1.8598633s.84529168-1.464186 1.75512695-2.7929687l2.20898433-3.21826175h-4.88769526v-1.5234375h6.42382816v1.5234375c-1.2314515 1.55306765-2.1962856 3.02676715-2.89453129 4.42114255-.69824568 1.3943755-1.04736328 2.5443477-1.04736328 3.4499512z" fill="#4a4a4a"/></g></g></svg>

<?xml version="1.0" encoding="UTF-8"?>
<svg width="40px" height="46px" viewBox="0 0 40 46" version="1.1" xmlns="http://www.w3.org/2000/svg" xmlns:xlink="http://www.w3.org/1999/xlink">
    <!-- Generator: Sketch 47.1 (45422) - http://www.bohemiancoding.com/sketch -->
    <title>starbucks-marker</title>
    <desc>Created with Sketch.</desc>
    <defs></defs>
    <g id="Page-1" stroke="none" stroke-width="1" fill="none" fill-rule="evenodd">
        <g id="starbucks-marker">
            <g id="Group">
                <g id="b-link">
                    <g id="b">
                        <g id="path-1-link" fill-rule="nonzero" fill="#000000">
                            <path d="M20,46.037 C21.732,46.037 23.412,39.78 25.015,39.367 C33.633,37.14 40,29.313 40,20 C40,8.954 31.046,0 20,0 C8.954,0 0,8.954 0,20 C0,29.318 6.372,37.147 14.996,39.37 C16.596,39.78 18.272,46.037 20,46.037 Z" id="path-1"></path>
                        </g>
                        <g id="path-1-link" fill="#00A862">
                            <path d="M20,46.037 C21.732,46.037 23.412,39.78 25.015,39.367 C33.633,37.14 40,29.313 40,20 C40,8.954 31.046,0 20,0 C8.954,0 0,8.954 0,20 C0,29.318 6.372,37.147 14.996,39.37 C16.596,39.78 18.272,46.037 20,46.037 Z" id="path-1"></path>
                        </g>
                    </g>
                </g>
            </g>
            <g id="Group" transform="translate(11.000000, 8.000000)">
                <g id="d-link">
                    <path d="M17.688,2.35 C17.58,1.89 17.101,0.7 16.188,0.7 L1.81,0.7 C0.898,0.7 0.42,1.89 0.307,2.382 L0.012,4.016 C-0.021,4.204 0.03,4.396 0.152,4.543 C0.274,4.689 0.454,4.773 0.645,4.773 L1.469,4.773 L2.627,21.213 C2.687,22.175 3.49,22.928 4.457,22.928 L13.547,22.928 C14.514,22.928 15.317,22.175 15.377,21.218 L16.533,4.773 L17.359,4.773 C17.551,4.773 17.731,4.689 17.853,4.543 C17.975,4.397 18.026,4.203 17.993,4.016 L17.691,2.35 L17.688,2.35 Z" id="d" fill="#FFFFFF" fill-rule="nonzero"></path>
                    <path d="M6.49588868,17 C6.58475631,16.2932907 6.75931511,15.6733425 7.01957032,15.1401367 C7.27982553,14.6069309 7.864862,13.6759507 8.77469727,12.347168 L10.9836816,9.12890625 L6.09598634,9.12890625 L6.09598634,7.60546875 L12.5198145,7.60546875 L12.5198145,9.12890625 C11.288363,10.6819739 10.3235289,12.1556734 9.62528321,13.5500488 C8.92703753,14.9444243 8.57791993,16.0943965 8.57791993,17 L6.49588868,17 Z" id="7" fill="#4A4A4A"></path>
                </g>
            </g>
        </g>
    </g>
</svg>
